!!!!SEGMENT: pl-wtm--a-43-196-99--001-012_kazuro-stanislaw--25-piesni-dzieciecych-z-fortepianem-op-49-kolysanka-lalki.krn
!!!cenid: 19xx:208
!!!COM: Kazuro, Stanisław
!!!COM-rismID: pe50047136
!!!CDT: 1881/08/02-1961/11/30
!!!CNT: Polish
!!!GTL: 25 Pieśni dziecięcych z fortepianem, op. 49
!!!OTL: Kołysanka lalki
!!!OMV: 012
!!!PDT: 1950
!!!AGN:
!!!YEC: Copyright 2022 Narodowy Instytut Fryderyka Chopina (https://polishscores.org)
!!!YEM: License CC-BY-4.0 (https://creativecommons.org/licenses/by/4.0)
!!!SMS-siglum: PL-Wtm
!!!SMS-shelfmark: A-43.196/99
!!!SMS-shelfwork: 001-012 G
!!!SMS-variant:
!!!SMS-altvar:
!!!NIFC-rismSourceID: 1001164821
!!!NIFC-rismChildID: 1001164821
!!!NIFC-islandoraID: pl-wtm:43198
!!!URL-pdf-islandora: https://repozytorium.nifc.pl/islandora/object/pl-wtm:43198/datastream/PDF/view
!!!URL-scan: https://polish.musicsources.pl/pl/lokalizacje/galeria/druki-muzyczne/22428/14 @EN{Scan on Polish Music Sources Website} @PL{Skany w portalu Dziedzictwo Muzyki Polskiej w otwartym dostępie}
!!!IIIF:
!!!ONB-nifc:
!!!AIN: 1 piano 1 vox
!!!key: G
!!!OMD: Andante.
**kern	**kern	**dynam	**kern	**text	**dynam
*part2	*part2	*part2	*part1	*part1	*part1
*staff3	*staff2	*staff2/3	*staff1	*staff1	*staff1
*I"[Piano]	*I"[Piano]	*	*I"[Voice]	*	*
*I'[pf]	*I'[pf]	*	*I'[V]	*	*
*Ipiano	*Ipiano	*	*Ivox	*	*
*ICklav	*ICklav	*	*ICvox	*	*
*IGacmp	*IGacmp	*	*IGsolo	*	*
*>[A,B,A]	*>[A,B,A]	*>[A,B,A]	*>[A,B,A]	*>[A,B,A]	*>[A,B,A]
*>A	*>A	*>A	*>A	*>A	*>A
*clefF4	*clefG2	*	*clefG2	*	*
*k[f#]	*k[f#]	*	*k[f#]	*	*
*G:	*G:	*	*G:	*	*
*M3/4	*M3/4	*	*M3/4	*	*
=1	=1	=1	=1	=1	=1
!	!	!	!LO:TX:a:rj:t=Słowa I. K. Iłłakowiczówny.	!	!
2.r	4B\	mf	2.r	.	.
.	8B\L	.	.	.	.
.	8B\J	.	.	.	.
.	8B\L	.	.	.	.
.	8B\J	.	.	.	.
=2	=2	=2	=2	=2	=2
*^	*^	*	*	*	*
4c/	2.F#\	2b^/	2.e\	.	2.r	.	.
8c/L	.	.	.	.	.	.	.
8c/J	.	.	.	.	.	.	.
8c/L	.	4a/	.	.	.	.	.
8c/J	.	.	.	.	.	.	.
=3	=3	=3	=3	=3	=3	=3	=3
2.c/	2.A\	[2.fn/	4e\	.	2.r	.	.
.	.	.	8e\L	.	.	.	.
.	.	.	8e\J	.	.	.	.
.	.	.	8e\L	.	.	.	.
.	.	.	8e\J	.	.	.	.
=4	=4	=4	=4	=4	=4	=4	=4
2.B/	2.B\	2fn/]	2.d#X\	.	2.r	.	.
.	.	4f#X/	.	.	.	.	.
*v	*v	*	*	*	*	*	*
!!LO:LB:g=original
=5	=5	=5	=5	=5	=5	=5
4r	(4b/	4g 4e\	p	4b\	Przy-	p
4r	4a/	4f# 4B\	.	4a/	-szła	.
4E\	4g/)	4e\	.	4g/	do	.
=6	=6	=6	=6	=6	=6	=6
(>4AA/	2.f#/	[2.e [2.c\	.	2f#/	łó-	.
4GG#X/	.	.	.	.	.	.
4AA/)	.	.	.	4f#/	-żka	.
=7	=7	=7	=7	=7	=7	=7
2.F# 2.DD/	4a/	2.e] 2.c\]	.	4a/	bo-	>
.	4dd,/	.	.	4dd,\	-sa	]
.	4a#X/	.	.	4a#X/	ka-	.
=8	=8	=8	=8	=8	=8	=8
4GG/	2.b 2.e/	2c\	.	2b\	-czu-	.
(4G\	.	.	.	.	.	.
4G#X\)	.	4d\	.	4b\	-szka.	.
!!LO:LB:g=original
=9	=9	=9	=9	=9	=9	=9
2A\	(4dd/	2.e-X 2.c\	.	4dd\	Sie-	.
.	4cc/	.	.	4cc\	-dem	.
4G\	4b/)	.	.	4b\	ma	.
=10	=10	=10	=10	=10	=10	=10
*^	*	*	*	*	*	*
4B/	2F#\	(4a/	[2.d\	.	4a/	pió-	.
4A/	.	4b/	.	.	4b,\	-rek	.
4G/	4E\	4g/)	.	.	4g/	u	.
=11	=11	=11	=11	=11	=11	=11	=11
2G/	4C\	2.e/	2d\]	.	2.e/	gło-	.
.	4BB\	.	.	.	.	.	.
4F#/	4AA\	.	[4c\	.	.	.	.
=12	=12	=12	=12	=12	=12	=12	=12
2.F#/	2.D\	2.d/	4c\]	.	2.f#/	-wy,	.
.	.	.	(4G#X\	.	.	.	.
.	.	.	4A\)	.	.	.	.
*v	*v	*	*	*	*	*	*
!!LO:PB:g=original
=13	=13	=13	=13	=13	=13	=13
!	!	!	!	!LO:TX:a:i:t=accelerando	!	!
4G\	2d/	4B\	mf	4g/	Przy-	mf
4G#X\	.	2c\	.	4f#/	-szła	.
4A\	4e/	.	.	4e/	do	.
=14	=14	=14	=14	=14	=14	=14
4B\	2a/	4d\	.	2a/	łó-	.
4c\	.	4d#X\	.	.	.	.
4c#X\	4g/	4e\	.	4g/	-żka	.
=15	=15	=15	=15	=15	=15	=15
*^	*	*	*	*	*	*
4d/	4B\	4b/	4g\	.	4b\	bo-	.
2c/	4A\	4cc/	4a\	.	4cc,\	-sa	.
.	4G#X\	4dd/	4b-X\	.	4dd\	ka-	.
=16	=16	=16	=16	=16	=16	=16	=16
2A#X/	2F#\	2ee/	4cc\	.	2ee\	-czu-	.
.	.	.	4e\	.	.	.	.
4G#X/	4E\	4b/	4d\	.	4b\	-szka	.
!!LO:LB:g=original
=17	=17	=17	=17	=17	=17	=17	=17
2F#/	2F# 2D\	4cc/	2.c\	.	4cc\	sie-	.
.	.	4b/	.	.	4b\	-dem	.
4E/	4AA\	4a/	.	.	4a/	ma	.
=18	=18	=18	=18	=18	=18	=18	=18
2.E/	4EE\	4g/	2d 2B\	.	4g/	pió-	.
.	4FF#\	4f#/	.	.	4f#,/	-rek	.
.	4GG\	4e/	4d 4B-X\	.	4e/	u	.
*v	*v	*	*	*	*	*	*
=19	=19	=19	=19	=19	=19	=19
2AA/	[2.g/	4c 4A\	.	2.g/	brzu-	.
.	.	2e-X 2c\	.	.	.	.
4DD/	.	.	.	.	.	.
=20	=20	=20	=20	=20	=20	=20
2GG/	2g/]	2d 2B\	.	2g/	-szka.	.
!	!LO:TX:c:i:t=Fine.	!	!	!	!	!
4r	4r	4ryy	.	4r	.	.
=21||	=21||	=21||	=21||	=21||	=21||	=21||
!!!OMD: Piu mosso.
*>B	*>B	*>B	*>B	*>B	*>B	*>B
*^	*	*	*	*	*	*
!	!	!	!	!LO:DY:rj	!	!	!LO:DY:b:rj
4B\	2ryy	4f#/	4d\	p	4f#/	To	p
4A\	.	4b/	4e 4c\	.	4b\	kwa-	.
4B/	4G\	4f#/	4d\	.	4f#/	-cze:	.
!!LO:LB:g=original
=22	=22	=22	=22	=22	=22	=22	=22
2.A#X/	4F#\	2.g/	2.e\	.	4g/	kwa,	.
.	4D\	.	.	.	8g/	kwa,	.
.	.	.	.	.	8g/	kwa,	.
.	4C#X\	.	.	.	8g/	kwa,	.
.	.	.	.	.	8g/	kwa,	.
=23	=23	=23	=23	=23	=23	=23	=23
4G#X/	4BB\	4e/	2d\	.	4e/	to	.
!	!	!LO:TX:c:i:t=rit.	!	!	!LO:TX:a:i:t=rit.	!	!
2Gn/	4BB-X\	4f#/	.	.	4f#/	pła-	.
.	4AA\	4c#X/	4A\	.	4c#X/	-cze:	.
=24	=24	=24	=24	=24	=24	=24	=24
[2.F#/	2.D 2.DD\	[2.d/	2.A#X\	.	4d/	kwa,	.
.	.	.	.	.	8d/	kwa,	.
.	.	.	.	.	8d/	kwa,	.
.	.	.	.	.	8d/	kwa,	.
.	.	.	.	.	8d/	kwa,	.
=25	=25	=25	=25	=25	=25	=25	=25
2F#/]	2BB 2BBB\	2d/]	2B\	.	2d/	kwa.	.
4r	4ryy	4r	4ryy	.	4r	.	.
*v	*v	*	*	*	*	*	*
*	*v	*v	*	*	*	*
=:|!	=:|!	=:|!	=:|!	=:|!	=:|!
*-	*-	*-	*-	*-	*-
!!!system-decoration: s1{(s2,s3)}
!!!RDF**kern: > = above
!!!ENC: Andrzej Gręziak
!!!END: 2025-03-28
!!!EED: Marta Lawrence
!!!EEV: 2025-04-02
